brandFactory_export/3.Masa/Base de datos_3Masa.svg

<?xml version="1.0" encoding="UTF-8"?>
<svg width="24px" height="24px" viewBox="0 0 24 24" version="1.1" xmlns="http://www.w3.org/2000/svg" xmlns:xlink="http://www.w3.org/1999/xlink">
    <title>3.Masa/Base de datos_3Masa</title>
    <g id="Symbols" stroke="none" stroke-width="1" fill="none" fill-rule="evenodd">
        <g id="3.Masa/Base-de-datos_3Masa" fill="#5CB615" fill-rule="nonzero">
            <path d="M19.2907563,6.35966387 C20.5176471,6.35966387 21.2470588,5.62016807 21.2470588,4.37983193 C21.2470588,3.1394958 20.5142857,2.4 19.2907563,2.4 C18.0638655,2.4 17.3344538,3.1394958 17.3344538,4.37983193 C17.3344538,5.62016807 18.0638655,6.35966387 19.2907563,6.35966387 Z M19.2705882,13.7983193 C20.497479,13.7983193 21.2268908,13.0588235 21.2268908,11.8184874 C21.2268908,10.5781513 20.4941176,9.83865546 19.2705882,9.83865546 C18.0436975,9.83865546 17.3109244,10.5781513 17.3109244,11.8184874 C17.3109244,13.0588235 18.0436975,13.7983193 19.2705882,13.7983193 Z M19.2705882,21.2403361 C20.497479,21.2403361 21.2268908,20.5008403 21.2268908,19.2605042 C21.2268908,18.0201681 20.4941176,17.2806723 19.2705882,17.2806723 C18.0436975,17.2806723 17.3109244,18.0201681 17.3109244,19.2605042 C17.3109244,20.5008403 18.0436975,21.2403361 19.2705882,21.2403361 Z M10.1411765,5.12268908 C10.5478992,5.12268908 10.8773109,4.78991597 10.8773109,4.37647059 C10.8773109,3.96302521 10.5478992,3.6302521 10.1411765,3.6302521 L3.3210084,3.6302521 C2.91428571,3.6302521 2.58487395,3.96302521 2.58487395,4.37647059 C2.58487395,4.78991597 2.91428571,5.12268908 3.3210084,5.12268908 L10.1411765,5.12268908 L10.1411765,5.12268908 Z M10.1411765,12.5647059 C10.5478992,12.5647059 10.8773109,12.2319328 10.8773109,11.8184874 C10.8773109,11.405042 10.5478992,11.0722689 10.1411765,11.0722689 L3.3210084,11.0722689 C2.91428571,11.0722689 2.58487395,11.405042 2.58487395,11.8184874 C2.58487395,12.2319328 2.91428571,12.5647059 3.3210084,12.5647059 L10.1411765,12.5647059 L10.1411765,12.5647059 Z M10.1411765,20.0537815 C10.5478992,20.0537815 10.8773109,19.7210084 10.8773109,19.307563 C10.8773109,18.8941176 10.5478992,18.5613445 10.1411765,18.5613445 L3.3210084,18.5613445 C2.91428571,18.5613445 2.58487395,18.8941176 2.58487395,19.307563 C2.58487395,19.7176471 2.91428571,20.0537815 3.3210084,20.0537815 L10.1411765,20.0537815 L10.1411765,20.0537815 Z M23.6571429,9.13613445 L23.6504202,14.487395 C23.6504202,14.8638655 23.5294118,15.210084 23.3310924,15.4957983 C23.5361345,15.7848739 23.6571429,16.1344538 23.6571429,16.5142857 L23.6504202,21.8655462 C23.6504202,22.8336134 22.8705882,23.6235294 21.9092437,23.6235294 L1.77142857,23.6235294 C0.813445378,23.6235294 0.0302521008,22.8336134 0.0302521008,21.8655462 L0.0369747899,16.5142857 C0.0369747899,16.1378151 0.154621849,15.7915966 0.356302521,15.5058824 C0.151260504,15.2168067 0.0302521008,14.8672269 0.0302521008,14.487395 L0.0369747899,9.13613445 C0.0369747899,8.75966387 0.154621849,8.41344538 0.356302521,8.12773109 C0.151260504,7.83865546 0.0302521008,7.48907563 0.0302521008,7.1092437 L0.0369747899,1.75798319 C0.0369747899,0.789915966 0.816806723,0 1.77478992,0 L21.912605,0 C22.8705882,0 23.6504202,0.789915966 23.6504202,1.75798319 L23.6436975,7.1092437 C23.6436975,7.48571429 23.5226891,7.83193277 23.3243697,8.11764706 C23.5361345,8.40672269 23.6571429,8.75630252 23.6571429,9.13613445 Z M19.2907563,3.58991597 C19.8655462,3.58991597 20.0705882,3.79831933 20.0705882,4.37983193 C20.0705882,4.96134454 19.8655462,5.1697479 19.2907563,5.1697479 C18.7159664,5.1697479 18.5109244,4.96134454 18.5109244,4.37983193 C18.5109244,3.79495798 18.7159664,3.58991597 19.2907563,3.58991597 Z M19.2705882,11.0285714 C19.8453782,11.0285714 20.0504202,11.2369748 20.0504202,11.8184874 C20.0504202,12.4 19.8453782,12.6084034 19.2705882,12.6084034 C18.6957983,12.6084034 18.4907563,12.4 18.4907563,11.8184874 C18.4907563,11.2369748 18.6957983,11.0285714 19.2705882,11.0285714 Z M19.2705882,18.4705882 C19.8453782,18.4705882 20.0504202,18.6789916 20.0504202,19.2605042 C20.0504202,19.8420168 19.8453782,20.0504202 19.2705882,20.0504202 C18.6957983,20.0504202 18.4907563,19.8420168 18.4907563,19.2605042 C18.4907563,18.6789916 18.6957983,18.4705882 19.2705882,18.4705882 Z" id="Base-de-datos_3Masa"></path>
        </g>
    </g>
</svg>

<svg width="24" height="24" viewBox="0 0 24 24" xmlns="http://www.w3.org/2000/svg"><path d="M19.29 6.36c1.228 0 1.957-.74 1.957-1.98s-.733-1.98-1.956-1.98c-1.227 0-1.957.74-1.957 1.98s.73 1.98 1.957 1.98zm-.02 7.438c1.227 0 1.957-.74 1.957-1.98s-.733-1.98-1.956-1.98c-1.227 0-1.96.74-1.96 1.98s.733 1.98 1.96 1.98zm0 7.442c1.227 0 1.957-.74 1.957-1.98s-.733-1.98-1.956-1.98c-1.227 0-1.96.74-1.96 1.98s.733 1.98 1.96 1.98zM10.142 5.123a.74.74 0 00.736-.747.74.74 0 00-.736-.746h-6.82a.74.74 0 00-.736.746c0 .414.33.747.736.747h6.82zm0 7.442a.74.74 0 00.736-.747.74.74 0 00-.736-.746h-6.82a.74.74 0 00-.736.746c0 .414.33.747.736.747h6.82zm0 7.489a.74.74 0 00.736-.746.74.74 0 00-.736-.747h-6.82a.74.74 0 00-.736.747c0 .41.33.746.736.746h6.82zM23.657 9.136l-.007 5.351c0 .377-.12.723-.319 1.009.205.289.326.638.326 1.018l-.007 5.352c0 .968-.78 1.758-1.74 1.758H1.77c-.958 0-1.74-.79-1.74-1.758l.006-5.352c0-.376.118-.722.32-1.008a1.751 1.751 0 01-.327-1.019l.007-5.35c0-.377.118-.724.32-1.01A1.751 1.751 0 01.03 7.11l.007-5.351C.037.79.817 0 1.775 0h20.138c.958 0 1.737.79 1.737 1.758l-.006 5.351c0 .377-.121.723-.32 1.009.212.289.333.638.333 1.018zM19.291 3.59c.575 0 .78.208.78.79 0 .581-.205.79-.78.79-.575 0-.78-.209-.78-.79 0-.585.205-.79.78-.79zm-.02 7.439c.574 0 .78.208.78.79 0 .581-.206.79-.78.79-.575 0-.78-.209-.78-.79 0-.582.205-.79.78-.79zm0 7.442c.574 0 .78.208.78.79 0 .581-.206.79-.78.79-.575 0-.78-.209-.78-.79 0-.582.205-.79.78-.79z" fill="#5CB615" fill-rule="nonzero"/></svg>
